!!!!SEGMENT: pl-wtm--a-28-698-74_krupinski-wiktor--zielona-laka.krn
!!!cenid: 19xx:44
!!!COM: Krupiński, Wiktor
!!!COM-rismID: pe50047127
!!!CDT: 1879-1951
!!!CNT: Polish
!!!OTL: Zielona łąka
!!!PDT:
!!!AGN: Secular
!!!YEC: Copyright 2022 Narodowy Instytut Fryderyka Chopina (https://polishscores.org)
!!!YEM: License CC-BY-4.0 (https://creativecommons.org/licenses/by/4.0)
!!!SMS-siglum: PL-Wtm
!!!SMS-shelfmark: A.28.698/74
!!!SMS-variant:
!!!SMS-altvar:
!!!SMS-shelfwork: W
!!!NIFC-rismSourceID: 1001210112
!!!NIFC-rismChildID: 1001210112
!!!NIFC-islandoraID: pl-wtm:34122
!!!URL-pdf-islandora: https://repozytorium.nifc.pl/islandora/object/pl-wtm%3A34122/datastream/PDF/view
!!!URL-scan: https://polish.musicsources.pl/pl/lokalizacje/galeria/druki-muzyczne/20466/2 @EN{Scan on Polish Music Sources Website} @PL{Skany w portalu Dziedzictwo Muzyki Polskiej w otwartym dostępie}
!!!IIIF:
!!!ONB-nifc:
!!!AIN: 2 piano 1 vox
!!!key: D
**kern	**kern	**dynam	**kern	**text	**text	**dynam
*part3	*part2	*part2	*part1	*part1	*part1	*part1
*staff3	*staff2	*	*staff1	*staff1	*staff1	*
*I"[Fortepian]	*I"[Fortepian]	*	*I"[Głos solowy]	*	*	*
*I'[pf]	*I'[pf]	*	*I'[V]	*	*	*
*ICklav	*ICklav	*	*ICvox	*	*	*
*Ipiano	*Ipiano	*	*Ivox	*	*	*
*clefF4	*clefG2	*	*clefG2	*	*	*
*k[f#c#]	*k[f#c#]	*	*k[f#c#]	*	*	*
*D:	*D:	*	*D:	*	*	*
*M4/4	*M4/4	*	*M4/4	*	*	*
=1	=1	=1	=1	=1	=1	=1
*^	*^	*	*	*	*	*
!	!	!	!	!	!LO:TX:a:B:t=Andante sostenuto.	!	!	!
[1F#	4r	4f#/	1f#	<	1r	.	.	.
.	4BB\	4dd/	.	.	.	.	.	.
.	4AA\	4cc#/	.	.	.	.	.	.
.	4GG\	8b/L	.	.	.	.	.	.
.	.	8e#X/J	.	[ >	.	.	.	.
=2	=2	=2	=2	=2	=2	=2	=2	=2
1FF# 1F#]	4ryy	1f#	4re	]]	1r	.	.	.
.	8E#X/L	.	8F#\L 8c#	.	.	.	.	.
.	8D/J	.	8G#X\J 8B	.	.	.	.	.
.	2C#/	.	2A#X\	p	.	.	.	.
=3	=3	=3	=3	=3	=3	=3	=3	=3
!	!	!LO:TX:b:i:t=cantabile	!	!	!	!	!	!
4r	2BB\	4d/ 4b	2.ryy	mf	4b\	Zie-	Zie-	.
4F#/ 4B	.	8f#/L 8dd	.	<	8dd\	-lo-	-lo-	.
.	.	8d/J 8b	.	.	8b\	-na	-na	.
4r	2AA\	4c#/ 4f# 4a	.	.	4a/	łą-	łą-	.
4F#/ 4A	.	4f#/ 4a	8d\L	.	4a/	-ka	-ka	.
.	.	.	8c#\J	.	.	.	.	.
=4	=4	=4	=4	=4	=4	=4	=4	=4
4r	2CC#\	4B/ 4e 4g	2ryy	[[	4g/	zie-	zie-	.
4E/	.	4B/ 4e 4g 4b	.	>	4b\	-lo-	-lo-	.
4r	2FF#\	2e/ 2f#	4B\	.	2f#/	-na,	-na,	.
4F#/	.	.	4A#X\	]]	.	.	.	.
!!LO:LB:g=original	!	!	!	!	!	!	!	!
=5	=5	=5	=5	=5	=5	=5	=5	=5
4r	2EE\ 2E	4B/ 4e 4g	2ryy	.	4g/	za	za	.
4E/ 4B	.	8f#/L 8a	.	.	8a/	łą-	łą-	.
.	.	8g/J 8b	.	.	8b\	-ką	-ką	.
!	!	!LO:TX:b:i:t=rit.	!	!	!	!	!	!
4r	2AAA\	4a/	4c#\ 4g	.	4a/	szu-	szu-	.
4AA/	.	8B/L 8d 8g	4ryy	.	8g/	-mią-	-mią-	.
.	.	8c#/J 8f# 8a	.	.	8a/	-cy	-cy	.
*	*	*v	*v	*	*	*	*	*
=6	=6	=6	=6	=6	=6	=6	=6
4r	2DD\	1B 1d 1f#	<[	2f#/	las,	las,	.
8AA/L	.	.	.	.	.	.	.
8BB/J	.	.	.	.	.	.	.
4BB-X/	2ryy	.	.	2r	.	.	.
4AA/	.	.	.	.	.	.	.
*v	*v	*	*	*	*	*	*
=7	=7	=7	=7	=7	=7	=7
*	*^	*	*	*	*	*
!	!LO:TX:b:i:t=a tempo	!	!	!	!	!	!
2BBBn/ 2FF# 2BBn	4dd/	2d\ 2f#	.	4dd\	Bądź	Po-	.
.	8dd/L	.	.	8dd\	zdro-	-cze-	.
.	8dd/J	.	.	8dd\	-wa	-kaj	.
2FF#/ 2C# 2F#	4cc#/	2c#\ 2f# 2a	.	4cc#\	Ka-	na	.
.	8cc#/L	.	.	8cc#\	-sień-	mnię	.
.	8cc#/J	.	.	8cc#\	-ko	Ja-	.
*	*v	*v	*	*	*	*	*
!!LO:LB:g=original	!	!	!	!	!	!
=8	=8	=8	=8	=8	=8	=8
*^	*	*	*	*	*	*
4r	2GG\	2d/ 2g 2b	.	2b\	mi-	-sień-	.
4D/ 4B	.	.	.	.	.	.	.
4r	2AA\	2c#/ 2f# 2a	.	2a/	-ła,	-ku,	.
4F#/ 4A	.	.	.	.	.	.	.
*v	*v	*	*	*	*	*	*
=9	=9	=9	=9	=9	=9	=9
*	*^	*	*	*	*	*
*	*	*^	*	*	*	*	*
!	!	!	!	!	!	!	!	!LO:HP:b
2DD/ 2D	2e/	8B\L	2G\	.	4e/	Bądź	Po-	<
.	.	8d\J	.	.	.	.	.	.
.	.	8c#\L	.	.	8f#/	zdro-	-wró-	.
!	!	!	!	!	!	!	!	!
.	.	8B\J	.	.	8g/	-wa	-cę	.
!	!	!LO:TX:b:i:t=ten.	!	!	!	!	!	!
2AAA/ 2AA	2c#/ 2f#	8A\L	4ryy	.	4a/	już	je-	.
.	.	8A-X\J	.	.	.	.	.	.
.	.	4G\	8r	.	8b\	na	-szcze	.
.	.	.	8An/ 8c# 8f#	.	8cc#\	mnię	w sam	.
*	*v	*v	*v	*	*	*	*	*
=10	=10	=10	=10	=10	=10	=10
*^	*	*	*	*	*	*
*	*^	*	*	*	*	*	*
8D/L	8AA\L	2DD\	2F#</ 2d	.	2.dd\	czas.	raz.	[[
16E/L	16BB-X\L	.	.	.	.	.	.	.
16E/JJ	16BB-\JJ	.	.	.	.	.	.	.
8F#/L	8D\L	.	.	.	.	.	.	.
16E/L	16AA\L	.	.	.	.	.	.	.
16E/JJ	16AA\JJ	.	.	.	.	.	.	.
4F#/	4D;\	2ryy	4d;/	.	.	.	.	.
4r	4ryy	.	4r	.	4r	.	.	.
*	*v	*v	*	*	*	*	*	*
!!LO:PB:g=original	!	!	!	!	!	!	!
=11	=11	=11	=11	=11	=11	=11	=11
4r	2GG\	8r	.	8r	.	.	.
!	!	!LO:TX:b:i:t=meno	!	!	!	!	!
.	.	8d/ 8b	.	8b\	Za	Ja-	.
4D/ 4B	.	8g/L 8dd	.	8dd\	łą-	-kże	.
.	.	8d/J 8b	.	8b\	-ką,	o-	.
4r	2GG\	4cn/ 4g 4a	.	4a/	łą-	-sta-	.
4E-X/ 4A	.	4c/ 4g 4a	.	4a/	-ką	-nę	.
=12	=12	=12	=12	=12	=12	=12	=12
4r	2GG\	4d/ 4g 4b	.	4b\	zie-	bez	.
4A/	.	4e/ 4g 4ccn	.	4ccn\	-lo-	cie-	.
4G/	2ryy	2cn/ 2g 2a	.	2a/	-ną,	-bię,	.
8F#/L	.	.	.	.	.	.	.
8E/J	.	.	.	.	.	.	.
=13	=13	=13	=13	=13	=13	=13	=13
*	*	*^	*	*	*	*	*
!	!	!LO:TX:b:i:t=mosso	!	!	!	!	!	!
4r	4BB\ 4F#	4d/ 4b	2.ryy	.	4b\	Za	So-	.
4F#/ 4B	4r	8f#/L 8dd	.	.	8dd\	la-	-ko-	.
.	.	8d/J 8b	.	.	8b\	-sem	-le	.
!	!	!	!	!	!	!	!	!LO:HP:a
4r	4EE\	4e/ 4g#X 4b 4ee	.	>	4ee\	co	ja-	>
4D/ 4E 4G#X 4B	4ryy	8dd/L	4d\ 4e 4g#	.	8dd\	szu-	-sny	.
.	.	8b/J	.	]]	8b\	-mi	ty	]]
=14	=14	=14	=14	=14	=14	=14	=14	=14
2.AA/	1AAA	1ccn	4cn\ 4e	.	2ccn\	wciąż,	mój,	.
.	.	.	(>8.fn\L 8.a	.	.	.	.	.
.	.	.	16d\Jk 16f	.	.	.	.	.
.	.	.	2c\) 2e	.	2r	.	.	.
4AA/	.	.	.	.	.	.	.	.
*	*	*v	*v	*	*	*	*	*
!!LO:LB:g=original	!	!	!	!	!	!	!
=15	=15	=15	=15	=15	=15	=15	=15
!	!	!	!	!	!	!	!LO:HP:a
4CCn/ 4Cn	4ryy	4e\ 4ccn 4ee	ff	4ee\	U-	Do	<
!	!	!LO:TX:b:i:t=poco rit.	!	!	!	!	!
8F#/L 8A	4C\	8d#X\L 8cc 8dd#X	.	8dd#X\	-ła-	ko-	.
8G/J	.	8e\J 8cc 8ee	.	8ee\	-nów	-lan	.
4r	2CC#X\ 2C#X	4g\ 4ee 4gg	.	4gg\	wstę-	oj-	[
*	*	*^	*	*	*	*	*
!	!	!	!	!	!	!	!	!LO:HP:a
4C#/ 4G 4A#X	.	8ff#/L	4g#\ 4a	.	8ff#\	-ga	-com	>
.	.	8ee/J	.	.	8ee\	się	przy-	.
*	*	*v	*v	*	*	*	*	*
*v	*v	*	*	*	*	*	*
=16	=16	=16	=16	=16	=16	=16
.	(<8qqe\	<	.	.	.	.
4DD/ 4D	2e/) 2g 2b 2dd	[	2dd\	wi-	-py-	]]
2D\ 2G 2B	.	.	.	.	.	.
.	4.d/ 4.g 4.b	.	4.b\	-je,	-dnę	.
4G\ 4B 4d	.	.	.	.	.	.
.	8g/	.	8g/	Pie-	i	.
=17	=17	=17	=17	=17	=17	=17
!	!LO:TX:b:i:t=a tempo	!	!	!	!	!LO:HP:a
4AAA/ 4AA	4e/ 4g 4ccn	.	4ccn\	-chu-	z to-	>
4BBB/ 4BB	4d/ 4g 4b	.	4b\	-rów	-bą	.
4CCn/ 4Cn	4c#/ 4e 4a	.	4a/	cią-	pój-	.
4DD/ 4D	8G/L [>8d 8g	.	8g/	-gnie	-dę	]
.	8c#/J 8d] 8f#	.	8f#/	sie	na	.
=18	=18	=18	=18	=18	=18	=18
2GG/ 2D	2B/ 2d 2g	.	2g/	wąż.	bój.	.
2r	2r	.	2r	.	.	.
!!LO:LB:g=original	!	!	!	!	!	!
=19	=19	=19	=19	=19	=19	=19
*	*^	*	*	*	*	*
2CCn/ 2Cn	4ee-X/	2e-X\ 2g	f	4ee-X\	O-	Za	.
!	!LO:TX:b:i:t=maestoso	!	!	!	!	!	!
.	8ee-/L	.	.	8ee-\	-sta-	lą-	.
.	8ee-/J	.	.	8ee-\	-waj	-ką,	.
2EE-X/ 2E-X	4B-X/ [4e- [4g 4b-X	2ryy	.	4b-X\	z Bo-	łą-	.
.	4B-/ 4e-] 4g] 4b-	.	.	4b-\	-giem	-ką	.
*	*v	*v	*	*	*	*	*
=20	=20	=20	=20	=20	=20	=20
2AA-X/ 2E-X	4cn/ 4e-X 4a-X 4ccn	.	4ccn\	Ka-	zie-	.
.	4e-/ 4a- 4ee-X	.	4ee-X\	-sien-	-lo-	.
2EE/ 2BB-X 2E-	4B-X/ 4e- 4g 4b-X	.	4b-X\	-ko,	-ną	.
.	4r	.	4r	.	.	.
=21	=21	=21	=21	=21	=21	=21
*	*^	*	*	*	*	*
4CCn/ 4Cn	4g/	2cn\ 2e-X	.	4g/	o-	Gra-	.
4BBB-X/ 4BB-X	8g/L	.	.	8g/	-sta-	-ba-	.
.	8g/J	.	.	8g/	-waj	-rze	.
!	!LO:TX:b:i:t=poco meno	!	!	!	!	!	!
2AAA/ 2AA	4ccn/	2c\ 2d 2f#X	.	4ccn\	już	ko-	.
.	8dd/L	.	.	8dd^^\	na	-pią-	.
.	8ee-X/J	.	.	8ee-X^^\	mnie	-cy	.
*	*v	*v	*	*	*	*	*
=22	=22	=22	=22	=22	=22	=22
2GGG;/ 2BBn	2dn;/ 2g 2ddn	.	2ddn;\	czas,	grób,	.
2r;	2r;	.	2r;	.	.	.
!!LO:LB:g=original	!	!	!	!	!	!
=23	=23	=23	=23	=23	=23	=23
*^	*^	*	*	*	*	*
!	!	!LO:TX:b:i:t=a tempo	!	!	!	!	!	!
4r	2BB\	8r	2ryy	.	8r	.	.	.
!	!	!	!	!	!	!	!	!LO:HP:a
.	.	8d/ 8bn	.	.	8bn\	Zie-	Ja-	<
4F#/	.	8f#/L 8dd	.	.	8dd\	-lo-	-sio-	.
.	.	8d/J 8b	.	.	8b\	-na	-wi	.
!	!	!	!	!	!	!	!	!LO:HP:a
4r	2FF#\	4f#/ 4a	4c#X\	.	4a/	łą-	da-	[ >
4F#/	.	4f#/ 4a	8d\L	.	4a/	-ka	-li	]]
.	.	.	8c#\J	.	.	.	.	.
=24	=24	=24	=24	=24	=24	=24	=24	=24
4r	2CC#X\	4B/ 4en 4g	2ryy	.	4g/	zie-	i	.
4C#/	.	4B/ 4e 4g 4b	.	.	4b\	-lo-	Ka-	.
4r	2FF#\	2e/ 2f#	4B\	.	2f#/	-na,	-si	.
4F#/	.	.	4A#X\	.	.	.	.	.
=25	=25	=25	=25	=25	=25	=25	=25	=25
!	!	!	!	!	!	!	!	!LO:HP:a
4r	2EE\	4e/ 4g	2B\	.	4g/	za	Bło-	<
4E/	.	8f#/L 8a	.	.	8a/	łą-	-go-	.
.	.	8g/J 8b	.	.	8b\	-ką	-sła-	.
!	!	!LO:TX:b:i:t=rit.	!	!	!	!	!	!
4r	2AAA\	4c#X/ 4e 4g 4cc#X	2ryy	.	4cc#X\	szu-	-wień-	.
4AA/	.	8d/L 8g 8b 8dd	.	.	8dd\	-mią-	-stwo	.
.	.	8e/J 8g 8cc# 8ee	.	.	8ee\	-cy	i	[[
*v	*v	*	*	*	*	*	*	*
*	*v	*v	*	*	*	*	*
=26	=26	=26	=26	=26	=26	=26
2DD/ 2AA 2F#	2d/ 2f# 2a 2dd	.	2dd\	las.	ślub.	.
2r	2r	.	2r	.	.	.
==	==	==	==	==	==	==
*-	*-	*-	*-	*-	*-	*-
!!!system-decoration: s1{(s2,s3)}
!!!RDF**kern: > = above
!!!RDF**kern: < = below
!!!ENC: Berenika Jozajtis
!!!END: 2023-08-25
!!!ENC: Jan Barakat
!!!END: 2023-09-19
